svgs/charge_meter.svg

<svg width="192" height="192" viewBox="0 0 192 192" fill="none" xmlns="http://www.w3.org/2000/svg">
<path d="M121.097 80C121.872 77.2246 122.149 74.3505 121.924 71.5M69.903 80C68.8509 76.2336 68.7162 72.2856 69.5092 68.4613C70.3022 64.637 72.0017 61.039 74.4761 57.9455C76.9506 54.8521 80.1338 52.3461 83.7794 50.6216C87.4249 48.897 91.4352 48 95.5 48C98.576 48 101.621 48.5027 104.5 49.5" stroke="black" stroke-width="10" stroke-linecap="round"/>
<path d="M52 35C52 31.6863 54.6863 29 58 29H75.75H115.25H133C136.314 29 139 31.6863 139 35V164C139 167.314 136.314 170 133 170H58C54.6863 170 52 167.314 52 164V35Z" stroke="black" stroke-width="12" stroke-linejoin="round"/>
<path d="M75.75 29V22H115.25V29" stroke="black" stroke-width="12" stroke-linecap="round" stroke-linejoin="round"/>
<path d="M69 122.617C69 134.764 79.653 141.236 87.4493 147.031C90.2 149.074 92.85 151 95.5 151C98.15 151 100.8 149.077 103.551 147.028C111.35 141.238 122 134.764 122 122.62C122 110.473 107.425 101.858 95.5 113.538C83.575 101.855 69 110.47 69 122.617Z" stroke="black" stroke-width="10" stroke-linecap="round" stroke-linejoin="round"/>
<path d="M96 81L117 57" stroke="black" stroke-width="10" stroke-linecap="round" stroke-linejoin="round"/>
</svg>

<svg xmlns="http://www.w3.org/2000/svg" width="192" height="192" fill="none" viewBox="0 0 192 192"><path stroke="#000" stroke-linecap="round" stroke-width="10" d="M121.097 80a24.4 24.4 0 0 0 .827-8.5M69.903 80a24.4 24.4 0 0 1-.394-11.539 24.95 24.95 0 0 1 4.967-10.515 26.3 26.3 0 0 1 9.303-7.324A27.4 27.4 0 0 1 95.5 48a27.5 27.5 0 0 1 9 1.5"/><path stroke="#000" stroke-linejoin="round" stroke-width="12" d="M52 35a6 6 0 0 1 6-6h75a6 6 0 0 1 6 6v129a6 6 0 0 1-6 6H58a6 6 0 0 1-6-6z"/><path stroke="#000" stroke-linecap="round" stroke-linejoin="round" stroke-width="12" d="M75.75 29v-7h39.5v7"/><path stroke="#000" stroke-linecap="round" stroke-linejoin="round" stroke-width="10" d="M69 122.617c0 12.147 10.653 18.619 18.45 24.414 2.75 2.043 5.4 3.969 8.05 3.969s5.3-1.923 8.051-3.972C111.35 141.238 122 134.764 122 122.62c0-12.147-14.575-20.762-26.5-9.082-11.925-11.683-26.5-3.068-26.5 9.079M96 81l21-24"/></svg>
